X:1
T:Mary Had a Baby
M:4/4
L:1/4
C:St. Helena Island Spiritual
K:F
F/F/F/F/ GA | F2Cz |
w:Ma-ry had a ba-by, Aye, Lord
F/F/F/F/ GA | FDCz |
w:Ma-ry had a ba-by, Aye, my Lord,
F/F/F/F/ GA | d2cz/A/ |
w:Ma-ry had a ba-by, Aye, Lord, The
c/c/c/d/ A/A/F/F/ |AGF2 ||
w:peo-ple keep a com-in' and the train done gone.
